X:15015
T:Oh Joe, the Boat is Going Over
R:Polka
C:Trad.
O:England, East Anglia
Z:Paul Hardy's Session Tunebook 2015 (see www.paulhardy.net). Creative Commons cc by-nc-sa licenced.
M:2/4
L:1/16
Q:1/4=100
K:D
"D"F6G2|A6B2|A2f2e2d2|"A"c4"G"B4|"A"E6F2|"G"G6A2|"A"B2c2B2A2|"D"F6G2|
"D"F6G2|A6B2|A2f2e2d2|"A"c4"G"B4|"A"e4f4|g2e2c3B|A2A2B2c2|"D"d6A2:|
|:"D"F2A2d3A|F2A2d3c|d2f2e2d2|"A"c4"G"B4|"A"c2d2e3d|c2d2e3d|c2d2c2B2|"D"A4A3G|
"D"F2A2d3A|F2A2d3c|d2f2e2d2|"A"c4"G"B4|"A"e4f4|"G"g2e2 c3B|"A"A2A2B2c2|"D"d6 A2:|

